X: 13864
T: Fox And The Geese, The
R: jig
M: 6/8
K: Dmajor
|:c|d2 a agf|e2 f g3|fed g2 f|efd cBA|
d2 a agf|e2 f g2 e|fed g2 f|1 edc d2:|2 edc d3||
|:c2 d ecA|c2 d efg|afd afd|afd afd|
c2 d e2 A|c2 d efg|1 afd g2 f|edc d3:|2 afd b2 a|gfe d2||

